!!!COM: Bach, Johann Sebastian
!!!CDT: 1685/03/31-1750/07/28
!!!OPR@@DE: Musicalisches Opfer
!!!OPR@EN: Musical Offering
!!!OTL: Trio
!!!OMV: 4
!!!OMD: Allegro
!!!SCA: BWV 1079
!!!voices: 3
**kern	**fb	**kern	**kern
*part3	*	*part2	*part1
*staff6	*	*staff4	*staff3
*I"Continuo	*	*I"Violino	*I"Flauto\ntraverso
*I'cont.	*	*I'vln.	*I'flt.
*clefF4	*	*clefG2	*clefG2
*k[b-e-a-]	*	*k[b-e-a-]	*k[b-e-a-]
*c:	*	*c:	*c:
*M6/8	*	*M6/8	*M6/8
*MM132	*	*MM132	*MM132
=1	=1	=1	=1
8c'L	.	4.cc	4r
8G'	.	.	.
8E-'J	.	.	8r
[4.C	.	4.r	8r
.	.	.	(8ccL
.	.	.	8ddJ
=2	=2	=2	=2
8CL>]	.	2.r	8ee-L
8D	.	.	8ff
8E-J	6	.	8ggJ
[4.F	5	.	8aa-L)
.	.	.	8ff'
.	6	.	8dd'J
=3	=3	=3	=3
8FL]	4nr	2.r	(4cc
8G	.	.	.
8FJ	.	.	8bn)
(8E-L	6	.	4r
8D	.	.	.
8CJ)	.	.	8gg
=4	=4	=4	=4
8D'L	5nr 4	2.r	(4gg
8An'	.	.	.
(8cJ	4#|	.	8ff#X)
8BnL	6 5nr	.	4r
8A	.	.	.
8GJ)	.	.	8ffn
=5	=5	=5	=5
8C'L	5 4	2.r	(4ff
8G'	.	.	.
(8B-XJ	4nr	.	8een)
8AnL	6 5-r	.	([4.ee-X
8G	.	.	.
8FJ)	.	.	.
=6	=6	=6	=6
4BB-	4	2.r	8ee-L]
.	3	.	8dd
8E-	7-r	.	[8dd-XJ
4AA-	4-r	.	8dd-L]
.	3	.	8cc
8A-	2nr	.	[8bnJ
!!LO:LB:g=original
=7	=7	=7	=7
4D	6nr	2.r	8bnXL<]
.	.	.	8an
8F	4nr	.	8g'J)
4E-	6	.	4cc
8D	6nr	.	8ff'
=8	=8	=8	=8
4C	.	2.r	8ee-'L
.	.	.	(8aa-
8E-	6	.	8ggJ
4F	6 5	.	8ffL
.	.	.	8ee-
8G	n	.	8ddJ)
=9	=9	=9	=9
4C	.	4r	8cc'L
.	.	.	(8ee-
8E-	6nr	8r	8ddJ
4F	6	8r	8ccL
.	.	(8gL	8b-
8FF#X	6 5	8anJ	8anJ)
=10	=10	=10	=10
8GGL	.	8b-L	8gL
8AAn	6#\	8cc	(8ff#X
8BB-J	6	8ddJ	8ggJ)
4.C	5	8ee-L)	4r
.	.	8cc'	.
.	6nr	8an'J	[8ee-
=11	=11	=11	=11
4D	9 4	(4g	16ee-LL]
.	.	.	16dd'
.	.	.	16cc'
.	.	.	16b-'
8DD	8 #	8f#X)	16an'
.	.	.	16g'JJ
4.Dt	5	4r	16f#XLL
.	.	.	16enJ
.	.	.	8dJ
.	6	8dd	[8bb-
=12	=12	=12	=12
4.Ent	7 5	(4dd	8bb-L]
.	.	.	8gg'
.	6#\	8cc#X)	8een'J
4.F#Xt	6 5nr	4r	(16anLL>
.	.	.	16b-J
.	.	.	8ccJ)
.	.	8ccn	[8aan
!!LO:LB:g=original
=13	=13	=13	=13
4G	.	(4cc	8aanXL]
.	.	.	8ff#X'
8Fn	4nr 2	8bn)	8gg'J
4E-	5-r	([4.b-X/	8g'L
.	.	.	(8gg
8D	6	.	8ffnJ)
=14	=14	=14	=14
4C	7	8b-L]	4.eent
.	6nr	8an	.
8CC	6-r	[8a-XJ	.
[4.C	6-r -_	8a-L]	4.ee-XT
.	5 _	8g	.
.	4#| _	[8f#XJ	.
=15	=15	=15	=15
4C]	4#| 2	8f#L]	[4.dd
.	.	8en	.
8c	.	8dJ)	.
4B-	6	4g	8ddL]
.	.	.	8een
8An	6#\	8cc'	8ff#XJ
=16	=16	=16	=16
4G	.	8b-X'L	4gg
.	.	(8ee-	.
8B-	6	8ddJ	8b-
4d	4	8ccL	4an
.	.	8b-	.
8D	#_	8anJ)	8ff#X
=17	=17	=17	=17
8G'L	.	4g	4.gg
8D'	.	.	.
8BB-'J	.	8d	.
4GG	X	[4.b-	8r
.	.	.	8bb-'L
8BB-	6	.	8gg'J
=18	=18	=18	=18
4.C	7 n	4b-]	8een'L
.	.	.	8cc'
.	.	8dd-X	[8b-J
4r	.	8g'L	(8b-L]
.	.	(8ff	8a-X
8C	.	8eenJ)	8gJ)
!!LO:LB:g=original
=19	=19	=19	=19
8FL<	.	4.ff	4f
8C	.	.	.
8AA-J	.	.	8cc
4FF	.	8r	[4.aa-
.	.	8aa-'L	.
8AA-	6	8ff'J	.
=20	=20	=20	=20
4.BB-	7	8ddn'L	4aa-]
.	.	8b-'	.
.	.	[8a-J	8ccc
4r	.	(8a-L]	8ff'L
.	.	8g	(8eee-
8BB-	.	8fJ)	8dddJ)
=21	=21	=21	=21
8E-L	.	4g	[4.eee-
8BB-	.	.	.
8GGJ	.	8b-	.
4EE-	.	[4.gg	8eee-L]
.	.	.	(16ee-L
.	.	.	16dd
8GG	6 n	.	16cc
.	.	.	16bnJJ)
=22	=22	=22	=22
4AA-	7	8ggL]	[4.cc
.	.	8ee-'	.
8r	.	8cc'J	.
4DD	7	[4.ff	8ccL]
.	.	.	8a-'
8r	.	.	8f'J
=23	=23	=23	=23
4GG	7 n	8ffL]	8dL
.	.	(16ggL	(8cc
.	.	16ff	.
8r	.	16ee-	8bnJ)
.	.	16ddJJ)	.
8CCL	.	16ee-LL	([4.cc
.	.	16dd	.
(8C	.	16ee-	.
.	.	16ff	.
8DJ	.	16gg	.
.	.	16ee-JJ	.
=24	=24	=24	=24
8E-L	6	[4.cc	8ccL]
8F	6 5	.	8dd
8GJ	6 4	.	8ee-J)
8A-L)	6_	8ccL]	[4.ff
8F'	.	(16ddL	.
.	.	16cc	.
8D'J	6nr	16bn	.
.	.	16ccJJ)	.
!!LO:LB:g=original
=25	=25	=25	=25
(4C	5 4 2	[4.dd	16ffLL]
.	.	.	16ee-
.	.	.	16ff
.	.	.	16gg
8BBn)	.	.	16aa-
.	.	.	16ffJJ
4r	.	16ddLL]	16bnLL
.	.	16cc	16an
.	.	16dd	16b
.	.	16ee-	16cc
8G	7 n	16ff	16dd
.	.	16ddJJ	16bJJ
=26	=26	=26	=26
(4G	6 4	8ee-'L	[4.cc
.	.	8cc'	.
8F#X)	7 5	8an'J	.
4r	.	(16dLL	8ccL]
.	.	16e-J	.
.	.	8fJ)	(16ddL
.	.	.	16cc
8Fn	6 5	[8dd	16bn
.	.	.	16anJJ)
=27	=27	=27	=27
(4F	4nr	8ddL]	8bn'L
.	.	8bn'	8gg'
8En)	6 5-r	8g'J	[8b-XJ
([4.E-X	.	8c'L	(8b-L]
.	.	(8cc	8an
.	.	8b-XJ)	8gJ)
=28	=28	=28	=28
8E-L]	4nr_	4.ant	8fL
8D	.	.	(8ff
[8D-XJ	.	.	8eenJ)
8D-L]	5-r 3	4.a-XT	[4.ff
8C	.	.	.
[8BBnJ	.	.	.
=29	=29	=29	=29
8BBL]	6 5	[4.g	8ffL]
8AAn)	.	.	(16ggL
.	.	.	16ff
8GGJ	.	.	16ee-X
.	.	.	16ddJJ)
4C	.	8gL]	8ee-'L
.	.	8an	8cc'
8F	4nr	8bnJ	8dd'J
=30	=30	=30	=30
4E-	6	4cc	8g'L
.	.	.	8ee-'
8A-X	.	8e-	8cc'J
4F	6 5	4d	(8a-L
.	.	.	8g
8G	n	8bn	8fJ)
!!LO:LB:g=original
=31	=31	=31	=31
4C	.	(8ccL	(8e-L
.	.	8dd)	8f
8BB-X	4 2	[8ee-J	8gJ)
4AA-	6 5	8ee-L]	8f'L
.	.	(16ddL	8ff'
.	.	16cc	.
8BB-	.	16b-X	8dd'J
.	.	16a-JJ)	.
=32	=32	=32	=32
4E-	.	(8gL	(8ee-L
.	.	8an	8ff#X
8D	4 22	8b-J)	[8ggJ)
4C	6nr 5	8a'L	8ggL]
.	.	8aan'	(16ff#XL
.	.	.	16een
8D	#	8ff#X'J	16dd
.	.	.	16ccJJ)
=33	=33	=33	=33
4G	.	(8ggL	(8b-L
.	.	8aan	8cc
8F	4 2	[8bb-J)	8ddJ)
4E-	6 5	8bb-L]	8cc
.	.	(16aanL	[4ccc
.	.	16gg	.
8F	n	16ffn	.
.	.	16ee-JJ)	.
=34	=34	=34	=34
(16BB-LL	9	8dd	8cccL]
16AAn	.	.	.
16GG	3	[4gg	(16bb-L
16FF	.	.	16aan
16EE-	.	.	16gg
16DDJJ)	.	.	16ffJJ)
(16CLL	.	8ggL]	8ee-
16BB-	.	.	.
16AA-X	6	(16ffL	[4aa-X
16GG	.	16ee-	.
16FF	.	16dd	.
16EE-JJ)	.	16ccJJ)	.
=35	=35	=35	=35
(16DLL	6 5	[4.b-	8aa-L]
16C	.	.	.
16BB-	6 4	.	(16ggL
16AA-	.	.	16ff
16GG	6	.	16ee-
16FFJJ)	.	.	16ddJJ)
(16E-LL	6 5	8b-L]	[4.cc
16D	.	.	.
16C	6 4	(16a-L	.
16BB-	.	16g	.
16AA-	6	16f	.
16GGJJ)	.	16e-JJ)	.
!!LO:LB:g=original
=36	=36	=36	=36
(16FLL	6 5	8d'L	8ccL]
16E-	.	.	.
16D	6	8f'	(16b-L
16C	.	.	16a-
16BB-	6	[8b-J	16g
16AA-JJ)	.	.	16fJJ)
(16GLL	6	8b-L]	[4.e-
16F	.	.	.
16E-	.	8g'	.
16D	.	.	.
16C	.	8e-'J	.
16BB-JJ)	.	.	.
=37	=37	=37	=37
8A-L	.	(8cL	8e-L]
8F	6	8d	16a-L
.	.	.	16fJ
8cJ	.	8.e-J)	8.gJ
8A-L	7 5	.	.
.	.	16f	16a-
8B-	.	8.dtL	8.fTL
8BB-J	.	.	.
.	.	16e-Jk	16e-Jk
=38	=38	=38	=38
8E-L	.	[4.e-	[4.e-
(16BB-L	.	.	.
16AA-	.	.	.
16GG	.	.	.
16FFJJ)	.	.	.
4EE-	.	8e-]	4e-]
.	.	(8ggL	.
8r	.	8ffJ	8r
=39	=39	=39	=39
8r	.	8ee-L	8r
8r	.	8dd	(8ffL
8F#X	7 5	8ccJ)	8ee-J
4G	n	(16bnLL	8ddL
.	.	16cc	.
.	.	16dd	8cc
.	.	16ee-J	.
8GG	7	[8ffJ	8bnJ)
=40	=40	=40	=40
4C	4	8ff]L	8ccL
.	n	8een)J	(8ccc
8r	.	8r	8bb-XJ
8r	.	8r	8aa-L
8r	.	(8b-XL	8gg
8Bn	7 5	8a-J	8ffJ)
!!LO:LB:g=original
=41	=41	=41	=41
4c	n	8gL	(16eenLL
.	.	.	16ff
.	.	8f	16gg
.	.	.	16aa-J
8C	7	8enJ)	[8bb-J
4F	4	8fL	8bb-]
.	-	(8ff	4aa-)
8r	.	8ee-XJ	.
=42	=42	=42	=42
8r	.	8dd-XL	8r
8r	.	8cc	(8ee-L
8En	7-r	8b-J)	8dd-XJ
4F	n	(16anLL	8ccL
.	.	16b-	.
.	.	16cc	8b-
.	.	16dd-XJ	.
8FF	7	[8ee-J	8anJ)
=43	=43	=43	=43
4BB-	4	8ee-L]	8b-L
.	n	8ddnJ)	(8bb-
8r	.	8r	8aa-XJ
8r	.	8r	8gg-XL
8r	.	(8aa-L	8ff
8An	7-r	8gg-XJ	8ee-J
=44	=44	=44	=44
4B-	.	8ffL	16ddLL
.	.	.	16ee-
.	.	8ee-	16ff
.	.	.	16gg-XJ
8BB-	7	8ddJ)	[8aa-J
[4.E-	4	8ee-L	8aa-L]
.	n	(8e-	8ggnJ)
.	.	8fJ	8r
=45	=45	=45	=45
8E-L]	.	8gL	4r
8F	.	8a-	.
8GJ	6	8b-J)	8r
[4.A-	5	8cc'L	8r
.	.	8a-'	8r
.	6	8f'J	[8ccc
!!LO:LB:g=original
=46	=46	=46	=46
8A-L]	6 5	4e-	16cccLL]
.	.	.	16bb-'
8F	.	.	16aa-'
.	.	.	16gg'
[8B-J	.	8d	16ff'
.	.	.	16ee-'JJ
(16B-LL]	.	4r	16ddLL
16A-	.	.	16ccJ
16G	.	.	8b-
16F	.	.	.
16E-	3	8b-	[8ggJ
16DJJ)	.	.	.
=47	=47	=47	=47
4.CT	7	(4b-/	8ggL]
.	.	.	8ee-'
.	6nr	8an)	8cc'J
4.Dt	6 5-r	4r	(16fLL
.	.	.	16gJ)
.	.	.	8a-J
.	.	8a-X	[8ff
=48	=48	=48	=48
4E-	9 4	(4a-	8ffL]
.	.	.	(8dd
8D-X	2	8g)	8ee-J)
4C	5-r	([4.g-X	8e-L
.	.	.	(8ee-
8BB-	6-r	.	8dd-XJ)
=49	=49	=49	=49
8AAnL	7-r	8g-L]	4.ccT
8An	6	8f	.
8GJ	7-r 4	[8f-J	.
[4.A-X	6-r -_	8f-L]	4.cc-XT
.	5 _	8e-	.
.	4nr _	[8dnJ	.
=50	=50	=50	=50
4A-]	4nr 2	8dL]	[4.b-
.	.	8c	.
8AA-	.	8B-J)	.
4GG	6	4e-	8b-L]
.	.	.	8ccn
8FF	6	8a-	8ddJ
!!LO:LB:g=original
=51	=51	=51	=51
4EE-	.	8gL	4ee-
.	.	(8cc	.
8GG	6	8b-J	8g
4AA-	6 5	8a-L	4f
.	.	8g	.
8BB-	.	8fJ)	8dd
=52	=52	=52	=52
4C	3	8e-L<	4ee-
.	.	(8ee-	.
8GG	6 5-r	8dd-XJ	8r
4AA-	.	8ccL	4r
.	.	8b-	.
8BB-	7 n	8a-J)	8r
=53	=53	=53	=53
4EE-	.	8g'L	4r
.	.	(8gg	.
8FF	6	8ffJ	8r
4GG	6	8ee-L	8r
.	.	8ddn	(8b-L
8AAn	6 5	8ccJ)	8ccJ
=54	=54	=54	=54
8BB-L	.	8b-'L	8ddL
8C	6nr	(8aan	8ee-
8DJ	6	8bb-J)	8ffJ
[4.E-	5	8r	8ggL)
.	.	8r	8ee-'
.	6	[8gg	8cc'J
=55	=55	=55	=55
8E-L]	6 5	16ggLL]	(4b-/
.	.	16ff	.
8C	.	16ee-	.
.	.	16dd	.
[8FJ	n	16cc	8an)
.	.	16b-JJ	.
(16FLL]	.	16anLL	8r
16E-	.	16gJ	.
16D	.	8fJ	8r
16C	.	.	.
16BB-	.	[8ddd	8ff
16AAnJJ)	.	.	.
!!LO:LB:g=original
=56	=56	=56	=56
4.GGt	7	8dddL]	(4ff
.	.	8bb-'	.
.	6nr	8gg'J	8een)
4.AAnt	6 5-r	(16ccLL	4r
.	.	16ddJ	.
.	.	8ee-J)	.
.	.	[8ccc	8ee-X
=57	=57	=57	=57
4BB-	9 4	8cccL]	(4ee-
.	.	(8aan	.
8AA-X	4 2	8bb-J)	8dd)
4GG	5-r	8b-'L	([4.dd-X
.	.	(8bb-	.
8FF	6-r 3	8aa-XJ)	.
=58	=58	=58	=58
8EEnL	7-r	4.ggt	8dd-L]
(8En	6	.	8cc
8DJ)	7-r 4	.	[8cc-J
[4.E-X	6-r -_	4.gg-XT	8cc-L]
.	5 _	.	8b-
.	4nr	.	[8anJ
=59	=59	=59	=59
8E-L]	4nr 2	[4.ff	8aL]
(8BB-	.	.	8g
8AAnJ)	.	.	8fJ)
(8DL	6	(8ffL]	4b-
8E-	.	8ggn	.
8FJ	7 n	8aanJ)	8ee-
=60	=60	=60	=60
8GL)	5	4bb-	8ddL
8An'	7	.	(8gg
8B-'J	.	8dd	8ffJ
4E-	6 5	4cc	8ee-L
.	.	.	8dd
8F	n	8aan	8ccJ)
=61	=61	=61	=61
4.BB-	.	8bb-'L	4.b-
.	.	8ff'	.
.	.	8dd'J	.
4r	.	(16b-LL	4r
.	.	16cc	.
.	.	16dd	.
.	.	16ee-	.
8r	.	16ff	[8b-/
.	.	16ggJJ)	.
!!LO:LB:g=original
=62	=62	=62	=62
8r	.	[2.aa-	(16b-LL]
.	.	.	16f
8BB-L	7_	.	16d
.	.	.	16f
8DJ	.	.	16b-
.	.	.	16ccJJ)
8FL	.	.	(16ddLL
.	.	.	16b-
8D	.	.	16f
.	.	.	16b-
8FJ	.	.	16dd
.	.	.	16ee-JJ)
=63	=63	=63	=63
8B-L	.	8aa-L]	8ff'L
8BB-	.	(16bb-L	8dd'
.	.	16aa-	.
8DJ	.	16gg	8b-'J
.	.	16ffJJ)	.
4.E-	X	8ggL	(16e-LL
.	.	.	16f
.	.	8b-	16g
.	.	.	16a-
.	.	[8e-J	16b-
.	.	.	16ccJJ)
=64	=64	=64	=64
8r	.	(16e-LL]	[2.dd-X
.	.	16B-	.
8E-L	7-r_	16G	.
.	.	16B-	.
8GJ	.	16e-	.
.	.	16fJJ)	.
8B-L	.	(16gLL	.
.	.	16e-	.
8G	.	16B-	.
.	.	16e-	.
8B-J	.	16g	.
.	.	16a-JJ)	.
=65	=65	=65	=65
8e-L	.	8b-L)	8dd-L]
8E-	.	8g	(16ee-L
.	.	.	16dd-X
8GJ	.	8e-J	16cc
.	.	.	16b-JJ)
8A-L	3	4A-	[4.cc
8B-	.	.	.
8cJ	6	8aa-	.
=66	=66	=66	=66
.	.	(8qqgg/	.
(8DnL	7	[4.ff)	8ccL]
8En	.	.	(16b-L
.	.	.	16a-
8FJ	.	.	16g
.	.	.	16fJJ)
8GL)	7	8ffL]	[4.b-/
8A-'	.	(16ee-XL	.
.	.	16dd-X	.
8B-'J	.	16cc	.
.	.	16b-JJ)	.
!!LO:LB:g=original
=67	=67	=67	=67
(8CL	7 n	(8eenL	(16b-LL>]
.	.	.	16dd-X
8D	.	8ff	16cc
.	.	.	16b-
8EnJ	.	8ggJ)	16a-
.	.	.	16gJJ)
8FL)	.	[4.cc	(16a-LL
.	.	.	16cc
8G'	.	.	16b-
.	.	.	16a-
8A-'J	6	.	16g
.	.	.	16fJJ)
=68	=68	=68	=68
4BB-	9 -	8ccL]	4dd-X
.	8	8b-	.
8C	6 -	[8a-J	8cc
4.D-X	7	8a-L]	(8ccL
.	6nr	8g	8bn
.	.	8fJ	8ccJ)
=69	=69	=69	=69
4C	4	(8fL	[2.cc
.	n	8en	.
8r	.	8fJ	.
8r	.	8gL	.
(8FFL	.	8a-	.
8GGJ	6nr	8b-J)	.
=70	=70	=70	=70
8AA-L	6	4.cc	8ccL]
8BB-	.	.	(8dd
8CJ	n	.	8eenJ)
8D-XL)	3	4r	8ffL
8BB-'	.	.	(16ggL
.	.	.	16ff
8GG'J	6nr 5-r	[8b-	16ee
.	.	.	16ffJJ)
=71	=71	=71	=71
(4FF	6-r 4 2	16b-LL]	[4.gg
.	.	16a-	.
.	.	16b-	.
.	.	16cc	.
8EEn)	.	16dd-X	.
.	.	16b-JJ	.
8r	.	16enLL	16ggLL]
.	.	16dn	16ff
8r	.	16e	16gg
.	.	16f	16aa-
8C	7 5	16g	16bb-
.	.	16eJJ	16ggJJ
!!LO:LB:g=original
=72	=72	=72	=72
(4C	6 4	[4.f	8aa-'L
.	.	.	8ff'
8BBn)	7 5	.	8dd'J
8r	.	8fL]	(16gLL
.	.	.	16a-J)
8r	.	16gL	8b-XJ
.	.	16f	.
8BB-X	6 5	16en	[8gg
.	.	16dJJ	.
=73	=73	=73	=73
(4BB-	4nr	8enL	8ggL]
.	.	8cc'	8een'
8AAn)	6 5-r	[8e-XJ	8cc'J
[4.AA-X	6 5	(8e-L]	8f'L
.	X 4	8d	(8ff
.	X 3	8cJ)	8ee-XJ)
=74	=74	=74	=74
8AA-L]	2_	8B-'L	4.ddnt
8GG	.	(8b-	.
[8GG-XJ	.	8anJ)	.
8GG-L]	5-r	[4.b-/	4.dd-XT
8FF	.	.	.
[8EEnJ	.	.	.
=75	=75	=75	=75
8EEL]	6 5	8b-L]	[4.cc
8DD	.	(16ccL	.
.	.	16b-	.
8CCJ	.	16a-X	.
.	.	16gJJ)	.
4FF	.	8a-'L	8ccL]
.	.	8f'	8ddn
8BB-	4nr	8g'J	8eenJ
=76	=76	=76	=76
4AA-	6	8cL	4ff
.	.	8a-'	.
8D-X	.	8f'J	8a-
4BB-	6 -	(8d-XL	4g
.	.	8c	.
8C	n	8B-J)	8een
!!LO:LB:g=original
=77	=77	=77	=77
.	.	(8qqB-/	.
4.FF	.	4A-)	8ff'L
.	.	.	8cc'
.	.	8r	8a-'J
4r	.	4r	(16fLL
.	.	.	16g
.	.	.	16a-
.	.	.	16b-
8r	.	[8f	16cc
.	.	.	16ddJJ)
=78	=78	=78	=78
8r	.	(16fLL]	[2.ee-X
.	.	16c	.
8FFL	7_ n	16An	.
.	.	16c	.
8AAnJ	.	16f	.
.	.	16gJJ	.
8CL	.	16anLL	.
.	.	16f	.
8AA	.	16c	.
.	.	16f	.
8CJ	.	16a	.
.	.	16b-JJ	.
=79	=79	=79	=79
8FL	.	8ccL)	8ee-L]
8FF	.	8an'	(16ffL
.	.	.	16ee-
8AAnJ	.	8f'J	16dd
.	.	.	16ccJJ)
4BB-	X	(16B-LL	8ddL
.	.	16c	.
.	.	16d	8bb-
.	.	16e-	.
8r	.	16f	[8b-J
.	.	16gJJ)	.
=80	=80	=80	=80
8r	.	[2.a-X	(16b-LL]
.	.	.	16f
8BB-L	7-r_	.	16d
.	.	.	16f
8DJ	.	.	16b-
.	.	.	16ccJJ)
8FL	.	.	(16ddLL>
.	.	.	16b-
8D	.	.	16f
.	.	.	16b-
8FJ	.	.	16dd
.	.	.	16ee-JJ)
!!LO:LB:g=original
=81	=81	=81	=81
8B-L	.	8a-L]	8ff'L
8BB-	.	(16b-L	8dd'
.	.	16a-	.
8DJ	.	16g	8b-'J
.	.	16fJJ)	.
8E-L	3	16gLL	4.e-
.	.	(16gg	.
16A-L	6	16ff	.
16G	.	16ee-	.
16F	.	16dd	.
16E-JJ	.	16ccJJ)	.
=82	=82	=82	=82
8DL	6nr 5-r	(16bnLL	[2.aa-
.	.	16g	.
8F	.	16d	.
.	.	16g	.
8DJ	.	16b	.
.	.	16ccJJ)	.
8BBnL	7-r 5	(16ddLL	.
.	.	16b	.
8D	.	16f	.
.	.	16b	.
8BBJ	.	16dd	.
.	.	16ee-JJ)	.
=83	=83	=83	=83
4GG	9 n_	(16ffLL	8aa-]
.	.	16aa-	.
.	8 _	16gg	4bn
.	.	16ff	.
8G	7 _	16ee-)	.
.	.	16dd'JJ	.
8CL>	X	16ee-LL	16ccLL
.	.	16cc	16g
8E-	6	(16g	16cc
.	.	16bn	16ddJ
8CJ	.	16cc	8ee-J
.	.	16ddJJ)	.
=84	=84	=84	=84
8AA-L	6 5	16ee-LL	[4.f
.	.	(16gg	.
8FF	.	16ff	.
.	.	16ee-	.
8AA-J	.	16dd	.
.	.	16ccJJ)	.
8BB-L	.	16ddLL	8fL]
.	.	16b-X	.
8D	6	(16f	16b-L
.	.	16an	16ccJ
8BB-J	-	16b-	8dd-XJ
.	.	16ccJJ)	.
!!LO:LB:g=original
=85	=85	=85	=85
8GGL	6 5-r	16dd-XLL	4e-
.	.	(16ff	.
8EE-	.	16ee-	.
.	.	16dd-	.
8GGJ	.	16cc	8r
.	.	16b-JJ)	.
8AA-L	.	[4.cc	16r
.	.	.	(16ddnLL
8GG	6nr	.	16een
.	.	.	16ff
8FFJ	.	.	16gg
.	.	.	16aa-JJ)
=86	=86	=86	=86
8EEnL	6 5	2.cc_	16bb-'LL
.	.	.	(16ddd-X
8CC	.	.	16ccc
.	.	.	16bb-
8EEJ	.	.	16aa-
.	.	.	16ggJJ)
4FF	.	.	16aa-LL
.	.	.	16ff
.	.	.	(16cc
.	.	.	16een
8r	.	.	16ff
.	.	.	16ggJJ)
=87	=87	=87	=87
8r	.	2.cc_	16aa-LL
.	.	.	(16ccc
8FL	.	.	16bb-
.	.	.	16aa-
8A-J	6	.	16gg
.	.	.	16ffJJ)
4c	-	.	16ggLL
.	.	.	16ee-X
.	.	.	(16cc
.	.	.	16dd
8r	.	.	16ee-
.	.	.	16ffJJ)
=88	=88	=88	=88
8r	.	4.cc_	16gg'LL
.	.	.	(16bb-
8FL	.	.	16aa-
.	.	.	16gg
(8CJ	.	.	16ff
.	.	.	16ee-JJ)
8DL	7	16ccLL]	[4.ff
.	.	(16ee-	.
8E-	.	16dd	.
.	.	16cc	.
8FJ	.	16bn	.
.	.	16anJJ)	.
!!LO:LB:g=original
=89	=89	=89	=89
8GL	n	(8bnL	16ffLL]
.	.	.	(16aa-
8An	.	8cc	16gg
.	.	.	16ff
8BnJ)	.	8ddJ)	16ee-
.	.	.	16ddJJ)
[4.c	.	16gLL	8ee-'L
.	.	(16ff	.
.	.	16ee-	(8cc
.	.	16dd	.
.	.	16cc	8ddJ
.	.	16bJJ)	.
=90	=90	=90	=90
16cLL]	.	[4.cc	8ee-L
(16d	.	.	.
16c	.	.	8ff
16B-X	.	.	.
16A-X	.	.	8ggJ
16GJJ)	.	.	.
4.FT	3	16ccLL]	8aa-L)
.	.	(16bb-X	.
.	.	16aa-	8ff'
.	.	16gg	.
.	6	16ff	8dd'J
.	.	16ee-JJ)	.
=91	=91	=91	=91
8GL	4	16ddLL	(4cc
.	.	(16aa-	.
8GG	.	16gg	.
.	.	16ff	.
8GJ	n	16ee-	8bn)
.	.	16ddJJ)	.
8CL	.	16ee-'LL	4r
.	.	(16ff	.
(8B-X	4 2	16ee-	.
.	.	16dd	.
8AnJ)	7	16cc	8gg
.	.	16b-JJ)	.
=92	=92	=92	=92
8dL	5 4	(16anLL<	(4gg
.	.	16g	.
8D	.	16a	.
.	.	16bn	.
8AnJ	6#\	16cc	8ff#X)
.	.	16bJJ)	.
8DL	7 n	16cc'LL	8r
.	.	(16ee-	.
(8A-X	6 4 3	16dd	8r
.	.	16cc	.
8GJ)	7 n	16bn	8ffn
.	.	16anJJ)	.
!!LO:LB:g=original
=93	=93	=93	=93
8cL	4	(16gLL	(4ff
.	.	16f	.
8C	.	16g	.
.	.	16an	.
8GJ	6nr	16b-X	8een)
.	.	16aJJ)	.
8CL	-	(16b-LL>	([4.ee-X
.	.	16dd-X	.
8D	.	16cc	.
.	.	16b-	.
8E-J	.	16a-X	.
.	.	16gJJ)	.
=94	=94	=94	=94
4AA-	6 5	(16fLL	8ee-L]
.	.	16en	.
.	4	16f	8dd
.	.	16g	.
8EEn	7-r 5	16a-	[8dd-XJ
.	.	16gJJ)	.
4FF	6-r	(16a-LL	8dd-L]
.	.	16b-	.
.	5	16a-	8cc
.	.	16g	.
8DD	6nr 5-r	16f	[8bnJ
.	.	16e-XJJ)	.
=95	=95	=95	=95
16GGLL>	n	4d	8bL]
(16A-	.	.	.
16G	.	.	8an
16F	.	.	.
16E-X	.	8r	8gJ)
16DJJ)	.	.	.
(16E-LL>	6	8r	4cc
16F	.	.	.
16E-	.	(8ccL	.
16D	.	.	.
16C	5 2	8ddJ	8ff
16BBnJJ)	.	.	.
=96	=96	=96	=96
(16CLL	.	8ee-L	(8ee-L
16BBn	.	.	.
16C	6 4	8ff	8aa-
16D	.	.	.
16E-	6	8ggJ	8ggJ)
16DJJ)	.	.	.
16E-LL	4 2	8aa-L)	[4.ff
16C	.	.	.
16D	.	8ff'	.
16E-	.	.	.
16F	6 5	8dd'J	.
16DJJ	.	.	.
!!LO:LB:g=original
=97	=97	=97	=97
4G	7 4	(4cc	16ffLL]
.	.	.	(16aa-
.	.	.	16gg
.	.	.	16ff
8GG	_ n	8bn)	16ee-
.	.	.	16ddJJ)
8CL	X	8r	(16ee-LL
.	.	.	16ff
(8B-X	4 2	8r	16ee-
.	.	.	16dd
8AnJ)	7	8gg	16cc
.	.	.	16b-JJ)
=98	=98	=98	=98
8DL	5 4	(4gg	(16anLL<
.	.	.	16g
8d	.	.	16a
.	.	.	16bn
8AnJ	6#\	8ff#X)	16cc
.	.	.	16bJJ)
8DL	7 n	8r	(16ccLL
.	.	.	16ee-
(8A-X	6 4 3	8r	16dd
.	.	.	16cc
8GJ)	7 n	8ffn	16bn
.	.	.	16anJJ)
=99	=99	=99	=99
8CL	5 4	(4ff	(16gLL
.	.	.	16f
8c	.	.	16g
.	.	.	16an
8GJ	6nr	8een)	16b-X
.	.	.	16aJJ)
8CL	-	([4.ee-X	(16b-LL>
.	.	.	16dd-X
8D	.	.	16cc
.	.	.	16b-
8E-J	6	.	16a-X
.	.	.	16gJJ)
=100	=100	=100	=100
4AA-	6 5	8ee-L]	(16fLL
.	.	.	16en
.	X 4	8dd	16f
.	.	.	16g
8EEn	7-r 5	[8dd-XJ	16a-
.	.	.	16gJJ)
4FF	6-r	8dd-L]	(16a-LL
.	.	.	16b-
.	5	8cc	16a-
.	.	.	16g
8D	6nr 5-r	[8bnJ	16f
.	.	.	16e-XJJ)
!!LO:LB:g=original
=101	=101	=101	=101
(16GLL	n	8bnL]	4d
16A-	.	.	.
16G	.	8an	.
16F	.	.	.
16E-X	.	8gJ)	8r
16DJJ)	.	.	.
(16E-LL>	6	4cc	8r
16F	.	.	.
16E-	.	.	4a-XT
16D	.	.	.
16C	6 4	8ff	.
16BBnJJ)	.	.	.
=102	=102	=102	=102
[4.C	.	8ee-L	8g'L
.	.	(8aa-	(8ff
.	.	8ggJ	8ee-J)
8CL]	4 2	8ffL	8dd'L
8c	6	8ee-	(8aa-
8B-XJ	6	8ddJ)	[8ggJ)
=103	=103	=103	=103
8AnL	7	(16ccLL	8ggL]
.	.	16bn	.
8e-	2#|	16cc	8ff#X
.	.	16dd	.
8cJ	.	16ee-	[8aanJ
.	.	16ccJJ)	.
8F#XL	6 5	(16ddLL	8aaL]
.	.	16cc	.
8D	.	16dd	8ccc
.	.	16ee-	.
8GJ	n	16ffn)	8bbnJ
.	.	16dd'JJ	.
=104	=104	=104	=104
8.CL	.	16ee-'LL	8cccL
.	.	(16aa-	.
.	.	16gg	(16bbnL
16DL	.	16ff	16aan
16E-	6	16ee-	16gg
16FJJ	.	16ddJJ)	16ffnJJ)
4G	6 4	(8ccL	(8ee-L
.	.	8bn)	8ff
8GG	5 n	[8ggJ	8ddJ)
!!LO:LB:g=original
=105	=105	=105	=105
8AAnL	7	8ggL]	16ccLL
.	.	.	16bn
8E-	2#|	8ff#X	16cc
.	.	.	16dd
8CJ	.	[8aanJ	16ee-
.	.	.	16ccJJ
8FF#XL	6 5	8aaL]	16ddLL
.	.	.	16cc
8DD	.	8ccc	16dd
.	.	.	16ee-
8GGJ	n	8bbnJ	16ffn
.	.	.	16ddJJ
=106	=106	=106	=106
8.CCL	.	8cccL	16ee-LL
.	.	.	(16aa-
.	.	(16bbnL	16gg
16DDL	.	16aan	16ff
16EE-	6	16gg	16ee-
16FFJJ	.	16ffnJJ)	16ddJJ)
8GGL	6 4	8ee-'L	8cc'L
8FF	6	8ff'	8dd'
8GGJ	n	8dd'J	8bn'J
=107	=107	=107	=107
4AA-	3	(8ccL	4cc
.	.	8dd	.
8AAn	.	[8ee-J)	8r
8BB-L	6 5	8ee-L]	8r
8BBn	4	(16ddL	8r
.	6 5	16cc	.
8GGJ	7 n	16bn	8dd
.	.	16anJJ)	.
=108	=108	=108	=108
4C	.	(16gLL	(8ee-L
.	.	16f	.
.	.	16e-	8ff
.	.	16d	.
8EEn	6 5	16c	[8ggJ)
.	.	16B-XJJ)	.
4FF	9	8A-X	8ggL]
.	8	[4aa-	(16ffL
.	.	.	16ee-
8FF#X	6 5	.	16dd
.	.	.	16ccJJ)
!!LO:LB:g=original
=109	=109	=109	=109
16GGLL	9	8aa-L]	(16bnLL
(16Fn	.	.	16ccJ
16E-	6	(16ggL	8dd)
16D	.	16ff	.
16C	.	16ee-	[8ee-J)
16BB-XJJ)	.	16ddJJ)	.
16AAnLL>	6 5	8ccL	8ee-L]
(16G	.	.	.
16F	6	(16ddL	(16ddL
16E-	.	16ee-J	16cc
16D	6nr	[8ffJ)	16bn
16CJJ)	.	.	16anJJ)
=110	=110	=110	=110
16BBnLL	6 5	8ffL]	[4.g
(16A-X	.	.	.
16G	6 4	(16ee-L	.
16F	.	16dd	.
16E-	6	16cc	.
16DJJ)	.	16b-XJJ)	.
16CLL	6 5	[4.a-	8gL]
(16B-X	.	.	.
16A-	6	.	8f
16G	.	.	.
16F	.	.	8a-XJ
16E-JJ)	.	.	.
=111	=111	=111	=111
16DLL	6nr 5-r	8a-L]	8bn'L
(16c	.	.	.
16Bn	6	(16gL	8dd'
16An	.	16f	.
16G	n	16e-	[8ffJ
16FJJ)	.	16dJJ)	.
16E-LL	6	[4.c	8ffL]
(16d	.	.	.
16c	.	.	(16ee-L
16B-X	.	.	16dd
16A-X	.	.	16ee-
16GJJ)	.	.	16ccJJ)
=112	=112	=112	=112
16FLL	6 5	8cL]	8aa-L
(16A-	.	.	.
16G	n	16fL	8bn
16F	.	16dJ	.
16E-	6	8.e-J	8.ccJ
16DJJ)	.	.	.
16CLL<	.	.	.
16FJ	6	16f	16dd
8G	n	8.dtL	8.bntL
8GGJ	.	.	.
.	.	16cJk	16ccJk
=113	=113	=113	=113
[4.CC	.	[4.c	[4.cc
4CC]	.	4c]	4cc]
8r	.	8r	8r
==	==	==	==
*-	*-	*-	*-
!!!system-decoration: [(s1,s2,s3)]
!!!RDF**kern: > = above
!!!RDF**kern: < = below
!!!URL-pdf: https://s9.imslp.org/files/imglnks/usimg/5/55/IMSLP10042-BWV1079-b.pdf#page=32 @{SMS}
!!!URL-youtube: https://www.youtube.com/watch?v=3QWxjD2qBAc&t=4s Netherlands Bach Society
!!!SMS: Bach-Gesellschaft Ausgabe, Band 31.2 Leipzig: Breitkopf und Härtel, 1885. Plate B.W. XXXI(2).
!!!PED: Alfred Döffel
!!!PED-ODT: 1821-1905
!!!ENC: Craig Stuart Sapp
!!!END: 2024/04/02
!!!EED: Craig Stuart Sapp
!!!EEV: 2024/04/02
!!!title: @{OTL}, @{OMV}. @{OTL} (@{SCA})
